public/svgs/light/backpack.svg

<svg xmlns="http://www.w3.org/2000/svg" viewBox="0 0 448 512"><!-- Font Awesome Pro 6.0.0-alpha2 by @fontawesome - https://fontawesome.com License - https://fontawesome.com/license (Commercial License) --><path d="M320 64H304V48C304 21.5 282.5 0 256 0H192C165.5 0 144 21.5 144 48V64H128C57.25 64 0 121.25 0 192V448C0 483.375 28.625 512 64 512H384C419.375 512 448 483.375 448 448V192C448 121.25 390.75 64 320 64ZM176 48C176 39.125 183.25 32 192 32H256C264.75 32 272 39.125 272 48V64H176V48ZM336 480H112V384H336V480ZM336 352H112V320C112 302.375 126.375 288 144 288H304C321.625 288 336 302.375 336 320V352ZM416 448C416 465.625 401.625 480 384 480H368V320C368 284.75 339.25 256 304 256H144C108.75 256 80 284.75 80 320V480H64C46.375 480 32 465.625 32 448V192C32 139 75 96 128 96H320C373 96 416 139 416 192V448ZM304 160H144C135.2 160 128 167.2 128 176V176C128 184.8 135.2 192 144 192H304C312.8 192 320 184.8 320 176V176C320 167.2 312.8 160 304 160Z"/></svg>

<svg xmlns="http://www.w3.org/2000/svg" viewBox="0 0 448 512"><!--! Font Awesome Pro 6.5.1 by @fontawesome - https://fontawesome.com License - https://fontawesome.com/license (Commercial License) Copyright 2023 Fonticons, Inc. --><path d="M192 32h64c8.8 0 16 7.2 16 16V64H176V48c0-8.8 7.2-16 16-16zM144 48V64H128C57.3 64 0 121.3 0 192V448c0 35.3 28.7 64 64 64H384c35.3 0 64-28.7 64-64V192c0-70.7-57.3-128-128-128H304V48c0-26.5-21.5-48-48-48H192c-26.5 0-48 21.5-48 48zm16 48H288h32c53 0 96 43 96 96V448c0 17.7-14.3 32-32 32H368V368 320c0-35.3-28.7-64-64-64H144c-35.3 0-64 28.7-64 64v48V480H64c-17.7 0-32-14.3-32-32V192c0-53 43-96 96-96h32zM112 480V384H336v96H112zm32-320c-8.8 0-16 7.2-16 16s7.2 16 16 16H304c8.8 0 16-7.2 16-16s-7.2-16-16-16H144zM336 352H112V320c0-17.7 14.3-32 32-32H304c17.7 0 32 14.3 32 32v32z"/></svg>
